X:1
T:14 Bagatelles
T:Andante
T: 
T:14 Bagatelles 
T:3. Andante
T:Béla Bartók 
T:Oli 2020
T:Oli 2020
C:Bartók, Béla
Z:Oli 2020
%%score { 1 | 2 }
L:1/8
Q:1/4=126
M:3/4
K:C
V:1 treble nm="Piano"
V:2 treble 
V:1
"^Andante"!p!"_sempre leggiero a legato" (5:4:5(!1!G/!5!=B/!4!_B/!3!A/!2!_A/ (5:4:5!1!G/=B/_B/=A/_A/ (5:4:5G/=B/_B/=A/_A/ | %1
 (5:4:5G/B/_B/A/_A/ (5:4:5G/=B/_B/=A/_A/ (5:4:5G/=B/_B/=A/_A/ | %2
 (5:4:5G/=B/_B/A/_A/ (5:4:5G/=B/_B/=A/_A/ (5:4:5G/=B/_B/=A/_A/ | %3
 (5:4:5G/=B/_B/A/_A/ (5:4:5G/=B/_B/=A/_A/ (5:4:5G/=B/_B/=A/_A/ | %4
 (5:4:5G/=B/_B/A/_A/ (5:4:5G/=B/_B/=A/_A/ (5:4:5G/=B/_B/=A/_A/ | %5
 (5:4:5G/=B/_B/A/_A/ (5:4:5G/=B/_B/=A/_A/ (5:4:5G/=B/_B/=A/_A/ | %6
 (5:4:5G/=B/_B/A/_A/ (5:4:5G/=B/_B/=A/_A/ (5:4:5G/=B/_B/=A/_A/ | %7
 (5:4:5G/=B/_B/A/_A/ (5:4:5G/=B/_B/=A/_A/ (5:4:5G/=B/_B/=A/_A/ | %8
 (5:4:5G/=B/_B/A/_A/ (5:4:5G/=B/_B/=A/_A/ (5:4:5G/=B/_B/=A/_A/ | %9
 (5:4:5G/=B/_B/A/_A/ (5:4:5G/=B/_B/=A/_A/ (5:4:5G/=B/_B/=A/_A/ | %10
 (5:4:5G/=B/_B/A/_A/ (5:4:5G/=B/_B/=A/_A/ (5:4:5G/=B/_B/=A/_A/ | %11
 (5:4:5G/=B/_B/A/_A/ (5:4:5G/=B/_B/=A/_A/ (5:4:5G/=B/_B/=A/_A/ | %12
 (5:4:5G/=B/_B/A/_A/ (5:4:5G/=B/_B/=A/_A/ (5:4:5G/=B/_B/=A/_A/ | %13
 (5:4:5G/=B/_B/A/_A/ (5:4:5G/=B/_B/=A/_A/ (5:4:5G/=B/_B/=A/_A/ | %14
 (5:4:5G/=B/_B/A/_A/ (5:4:5G/=B/_B/=A/_A/ (5:4:5G/=B/_B/=A/_A/ | %15
 (5:4:5G/=B/_B/A/_A/ (5:4:5G/=B/_B/=A/_A/ (5:4:5G/=B/_B/=A/_A/ | %16
 (5:4:5G/=B/_B/A/_A/ (5:4:5G/=B/_B/=A/_A/ (5:4:5G/=B/_B/=A/_A/ | %17
 (5:4:5G/=B/_B/A/_A/ (5:4:5G/=B/_B/=A/_A/ (5:4:5G/=B/_B/=A/_A/ | %18
 (5:4:5G/=B/_B/A/_A/ (5:4:5G/=B/_B/=A/_A/ (5:4:5G/=B/_B/=A/_A/ | %19
 (5:4:5G/=B/_B/A/_A/ (5:4:5G/=B/_B/=A/_A/ (5:4:5G/=B/_B/=A/_A/ | %20
 (5:4:5G/=B/_B/A/_A/ (5:4:5G/=B/_B/=A/_A/ (5:4:5G/=B/_B/=A/_A/ | %21
 (5:4:5G/=B/_B/A/_A/"_ritard."[Q:1/4=96]"^T" (5:4:5G/=B/_B/=A/_A/ (5:4:5G/=B/_B/=A/_A/ | %22
[Q:1/4=76]"^T"!>(! (5:4:5G/=B/_B/A/_A/ (5:4:5G/=B/_B/=A/_A/ (5:4:5G/=B/_B/=A/_A/ | %23
 (3GB_B A_A !fermata!G2)!>)! |] %24
V:2
 z6 | z6 |!mf! (!1!^F6 | !2!E2 ^D2 B,2 | !^!!4!C6- | C6) | (!1!^F6 | E2 ^D3 B, | !^!C6- | C6) | %10
 (!3!^F6 |!<(! !5!E2 !2!c3 ^c!<)! | !5!^D6 | E4) z2 |!p! (!4!F4 E2- | E2 !2!c2!<(! _d2 | !4!_E6 | %17
 D4 =E)!<)! z |!mf! (!1!^F6 | E2 ^D3 B,) |!>(! (^F6!>)! |!>(! !2!E2 ^D2 !5!A,B,)!>)! | !^!C6- | %23
 !fermata!C6 |] %24

